X: 1
T: Aaron's Key
R: jig
M: 6/8
L: 1/8
K: Bmin
E|F2B Bcd|cAA ABc|dBB Bcd|edc BAG|
FBB Bcd|cAA ABc|dcd ede|fdB B2A|
F2B Bcd|cAA ABc|dBB Bcd|efd efg|
~f3 fed|cAA ABc|dcd ede|fdB B2c||
|:d2A def|ecA a2g|~f3 fed|cde ABc|
BFB cBc|d2d ede|fed cBA|1 B2B B2c:|2 B2B B2A|


Tune 2266	Setting 22985

